X:175
T:Last Rose of Summer,The. CJF.175
R:Air
S:C.J.Fox MS, 1829/33, Beverley,E.Yorks.
N:The grace notes in the first and last bars interrupt
N:beamed pairs in the MS. – PJH.
B:Kidson Coll.Mitchell Lib.M1805
O:England
A:East Yorkshire
Z:vmp.P J Headford 2000 & 2008
M:3/4
L:1/8
Q:1/4=120
K:G
“(Andante)”(G3/2{A/G/F/G/}A/)|B2g2{f}(e>d)|\
(dB3)G>A|B2{d}(c>B) {B}(A>G)|!
G4(G>A)|B2g2(e>d)|(dB3)G>A|B2{d}(c>B) {B}A>G|G2z:|!
|:(d>B)|g2(g>f) {f}(e>d)|d2B2(d>B)|g2(gf) (e>^d)|\
e2( {f/e/^d/e/)} ({fa)}Hg2(G>A)|!
B2g2(f>e)|(dB3)”~”G>A|B2{d/}(c>B) “tr”A{G/A/}G|G4:|

